X:36
T:Greasy String
M:4/4
R:reel
Q:1/2=120
L:1/8
K:G
"G"D2ED G2A2|"G"B2d2 "Em"B4|"C"A2G2 "D"EDEG|"G"AG-G2 G4|
"G"D2ED G2A2|"G"B2d2 "Em"B4|"C"A2G2 "D"EDEG|"G"AG-G2 G4:|
|:"G"g4 g2d2|edBA G2fg|"D"agfg a2ab|"D"agfe d4|
"G"g2ba g2d2|"G"ed-d2 "Em"B4|"C"A2G2 "D"EDEG|"G"AG-G2 G4:|
